public/assets/pianity.svg

<svg width="70" height="10" viewBox="0 0 70 10" fill="none" xmlns="http://www.w3.org/2000/svg">
<path d="M0.40918 5.36569V9.84058H1.90081H3.39244V8.58447V7.32836H5.49642C8.87221 7.32836 9.98701 6.96723 10.6151 5.66402C11.2588 4.3608 10.882 2.27252 9.8928 1.56596C9.07633 0.985011 8.32266 0.890802 4.30312 0.890802H0.40918V5.36569ZM7.6318 3.40302C8.00864 3.77985 8.04004 4.298 7.69461 4.78474C7.47479 5.11447 7.34918 5.13017 5.41791 5.13017H3.39244V4.10958V3.08899H5.35511C7.11366 3.08899 7.34918 3.1204 7.6318 3.40302Z" fill="#5A5A5A" fill-opacity="0.64"/>
<path d="M12.1854 5.36561V9.8562L13.7242 9.8091L15.2472 9.76199L15.2943 5.31851L15.3257 0.890726H13.7556H12.1854V5.36561Z" fill="#5A5A5A" fill-opacity="0.64"/>
<path d="M20.2244 2.0213C18.6856 4.84754 16.1106 9.68356 16.1106 9.76207C16.1106 9.80917 16.8172 9.84058 17.6807 9.84058H19.2509L19.6748 8.977L20.0987 8.11343H22.4853H24.8877L25.2802 8.977L25.6727 9.84058H27.2429C28.1849 9.84058 28.8287 9.77777 28.8287 9.68356C28.8287 9.60506 27.8552 7.57958 26.6776 5.20868L24.5108 0.890802H22.6738H20.8367L20.2244 2.0213ZM23.1762 4.61202C23.4745 5.25578 23.7572 5.86813 23.7729 5.93094C23.8043 6.00944 23.2233 6.07225 22.4853 6.07225H21.135L21.7945 4.73764C22.1713 3.99967 22.501 3.40302 22.5482 3.40302C22.5953 3.41872 22.8779 3.95257 23.1762 4.61202Z" fill="#5A5A5A" fill-opacity="0.64"/>
<path d="M29.802 5.31859L29.8491 9.76207H31.2623H32.6754L32.7539 7.37546L32.8324 4.97316L34.9992 7.40687L37.166 9.84058H38.6419H40.1335V5.36569V0.890802H38.6419H37.166L37.1189 3.2303L37.0718 5.55411L35.0306 3.2303L32.9894 0.890802H31.3722H29.7706L29.802 5.31859Z" fill="#5A5A5A" fill-opacity="0.64"/>
<path d="M41.8921 5.31851L41.9392 9.76199L43.478 9.8091L45.001 9.8562V5.36561V0.890726H43.4309H41.8607L41.8921 5.31851Z" fill="#5A5A5A" fill-opacity="0.64"/>
<path d="M45.9427 1.9899V3.08899H47.8269H49.7111V6.46478V9.84058H51.2027H52.6943V6.46478V3.08899H54.5785H56.4627V1.9899V0.890802H51.2027H45.9427V1.9899Z" fill="#5A5A5A" fill-opacity="0.64"/>
<path d="M56.7767 0.969203C56.7767 1.01631 57.7973 2.35092 59.0534 3.93676L61.3144 6.81011L61.3615 8.28604L61.4086 9.76196H62.9003H64.3919L64.4704 8.19183L64.5489 6.62169L66.7942 3.84255C68.0189 2.30382 69.0238 1.01631 69.0238 0.969203C69.0238 0.922099 68.3015 0.890696 67.4066 0.890696H65.7893L64.3919 2.61785C63.6382 3.55993 62.9631 4.34499 62.916 4.34499C62.8532 4.34499 62.2094 3.57563 61.4871 2.61785L60.1525 0.906398L58.4725 0.890696C57.5304 0.890696 56.7767 0.922099 56.7767 0.969203Z" fill="#5A5A5A" fill-opacity="0.64"/>
</svg>

<svg width="70" height="10" fill="none" xmlns="http://www.w3.org/2000/svg"><path d="M.41 5.366V9.84h2.982V7.328h2.104c3.376 0 4.491-.36 5.12-1.664.643-1.303.266-3.391-.723-4.098-.817-.581-1.57-.675-5.59-.675H.41v4.475Zm7.222-1.963c.377.377.408.895.063 1.382-.22.33-.346.345-2.277.345H3.392V3.09h1.963c1.759 0 1.994.031 2.277.314ZM12.185 5.366v4.49l1.54-.047 1.522-.047.047-4.443.032-4.428h-3.14v4.475ZM20.224 2.021c-1.538 2.827-4.113 7.663-4.113 7.741 0 .047.706.079 1.57.079h1.57l.424-.864.424-.864h4.789l.392.864.393.864h1.57c.942 0 1.586-.063 1.586-.157 0-.079-.974-2.104-2.151-4.475L24.51.89h-3.674l-.613 1.13Zm2.952 2.591c.299.644.581 1.256.597 1.319.031.078-.55.141-1.288.141h-1.35l.66-1.334c.376-.738.706-1.335.753-1.335.047.016.33.55.628 1.209ZM29.802 5.319l.047 4.443h2.826l.079-2.387.078-2.402L35 7.407l2.167 2.434h2.967V.89h-2.967l-.047 2.34-.047 2.323L35.03 3.23 32.989.89h-3.218l.031 4.429ZM41.892 5.319l.047 4.443 1.539.047 1.523.047V.891h-3.14l.031 4.428ZM45.943 1.99v1.099h3.768v6.752h2.983V3.089h3.769V.891h-10.52V1.99ZM56.777.97c0 .046 1.02 1.38 2.276 2.967l2.261 2.873.047 1.476.048 1.476h2.983l.078-1.57.079-1.57 2.245-2.78c1.225-1.538 2.23-2.826 2.23-2.873 0-.047-.722-.078-1.617-.078h-1.618l-1.397 1.727c-.754.942-1.429 1.727-1.476 1.727-.063 0-.707-.77-1.429-1.727L60.153.906l-1.68-.015c-.943 0-1.696.031-1.696.078Z" fill="#5A5A5A" fill-opacity=".64"/></svg>
